X:1
T:Twelve Gates to the City
M:4/4
L:1/8
K:G
 G6 BB| dd c2 B G3| d6 dd| dd d2 d2 d2| G6 BB| dd c2 B G3| d3 d3 cd|\
 B G3F-D F2| G8-| G2 z6| d d4- dc B| d4 z4| d d4- dc B| G4 z4| d d4- dc B|\
 d4 z4| d d4- dc B| G4G-G B2| d3 d3 cc| B G3 FD F2| G8| G2 z6|

